img/svg/instagram-icon.svg

<svg width="48" height="48" viewBox="0 0 48 48" fill="none" xmlns="http://www.w3.org/2000/svg">
<path d="M19.8 14.0002H28.2C31.4 14.0002 34 16.6002 34 19.8002V28.2002C34 29.7385 33.3889 31.2138 32.3012 32.3015C31.2135 33.3892 29.7383 34.0002 28.2 34.0002H19.8C16.6 34.0002 14 31.4002 14 28.2002V19.8002C14 18.262 14.6111 16.7867 15.6988 15.699C16.7865 14.6113 18.2617 14.0002 19.8 14.0002ZM19.6 16.0002C18.6452 16.0002 17.7295 16.3795 17.0544 17.0547C16.3793 17.7298 16 18.6455 16 19.6002V28.4002C16 30.3902 17.61 32.0002 19.6 32.0002H28.4C29.3548 32.0002 30.2705 31.621 30.9456 30.9458C31.6207 30.2707 32 29.355 32 28.4002V19.6002C32 17.6102 30.39 16.0002 28.4 16.0002H19.6ZM29.25 17.5002C29.5815 17.5002 29.8995 17.6319 30.1339 17.8664C30.3683 18.1008 30.5 18.4187 30.5 18.7502C30.5 19.0818 30.3683 19.3997 30.1339 19.6341C29.8995 19.8685 29.5815 20.0002 29.25 20.0002C28.9185 20.0002 28.6005 19.8685 28.3661 19.6341C28.1317 19.3997 28 19.0818 28 18.7502C28 18.4187 28.1317 18.1008 28.3661 17.8664C28.6005 17.6319 28.9185 17.5002 29.25 17.5002ZM24 19.0002C25.3261 19.0002 26.5979 19.527 27.5355 20.4647C28.4732 21.4024 29 22.6742 29 24.0002C29 25.3263 28.4732 26.5981 27.5355 27.5358C26.5979 28.4735 25.3261 29.0002 24 29.0002C22.6739 29.0002 21.4021 28.4735 20.4645 27.5358C19.5268 26.5981 19 25.3263 19 24.0002C19 22.6742 19.5268 21.4024 20.4645 20.4647C21.4021 19.527 22.6739 19.0002 24 19.0002ZM24 21.0002C23.2044 21.0002 22.4413 21.3163 21.8787 21.8789C21.3161 22.4415 21 23.2046 21 24.0002C21 24.7959 21.3161 25.559 21.8787 26.1216C22.4413 26.6842 23.2044 27.0002 24 27.0002C24.7956 27.0002 25.5587 26.6842 26.1213 26.1216C26.6839 25.559 27 24.7959 27 24.0002C27 23.2046 26.6839 22.4415 26.1213 21.8789C25.5587 21.3163 24.7956 21.0002 24 21.0002Z" fill="#072125"/>
<path d="M24 47.0002C11.2975 47.0002 1 36.7028 1 24.0002H-1C-1 37.8074 10.1929 49.0002 24 49.0002V47.0002ZM47 24.0002C47 36.7028 36.7025 47.0002 24 47.0002V49.0002C37.8071 49.0002 49 37.8074 49 24.0002H47ZM24 1.00024C36.7025 1.00024 47 11.2977 47 24.0002H49C49 10.1931 37.8071 -0.999756 24 -0.999756V1.00024ZM24 -0.999756C10.1929 -0.999756 -1 10.1931 -1 24.0002H1C1 11.2977 11.2975 1.00024 24 1.00024V-0.999756Z" fill="#20484F" fill-opacity="0.1"/>
</svg>

<svg width="48" height="48" fill="none" xmlns="http://www.w3.org/2000/svg"><path d="M19.8 14h8.4c3.2 0 5.8 2.6 5.8 5.8v8.4a5.8 5.8 0 0 1-5.8 5.8h-8.4c-3.2 0-5.8-2.6-5.8-5.8v-8.4a5.8 5.8 0 0 1 5.8-5.8Zm-.2 2a3.6 3.6 0 0 0-3.6 3.6v8.8c0 1.99 1.61 3.6 3.6 3.6h8.8a3.6 3.6 0 0 0 3.6-3.6v-8.8c0-1.99-1.61-3.6-3.6-3.6h-8.8Zm9.65 1.5a1.25 1.25 0 1 1 0 2.5 1.25 1.25 0 0 1 0-2.5ZM24 19a5 5 0 1 1 0 10 5 5 0 0 1 0-10Zm0 2a3 3 0 1 0 0 6 3 3 0 0 0 0-6Z" fill="#072125"/><path d="M24 47C11.297 47 1 36.703 1 24h-2c0 13.807 11.193 25 25 25v-2Zm23-23c0 12.703-10.297 23-23 23v2c13.807 0 25-11.193 25-25h-2ZM24 1c12.703 0 23 10.298 23 23h2C49 10.193 37.807-1 24-1v2Zm0-2C10.193-1-1 10.193-1 24h2C1 11.298 11.297 1 24 1v-2Z" fill="#20484F" fill-opacity=".1"/></svg>
